X: 1
T: Irwin the Scientist
R: strathspey
C: Terry Traub January 12, 2005
R: strathspey
N: In honor of organic chemist and father-in-law Irwin "Pomey" Pomerantz
M: 4/4
L: 1/8
K: F
|: c | "F"f2 a>g "Bb"f<dd>f | "F"c<AA>f "C"A<GG>e | "F7 (Dm)"f2 a>g "Bb"f<dd>f | "F"c>A "C"c/B/A/G/ "F"F2 F :|
   c | "F"f2 a>f "Bb"b<dd>b | "F"a<cc>a "C"g/f/e/d/ cd/e/ | "F"f2 a>f "Bb"b<dd>b | "F"a>f "C"a/g/f/e/ "F"f2 f>c |
   y | "F"f2 a>f "Bb"b<dd>b | "F"a<cc>a "C"g/f/e/d/ c/B/A/G/ | "F"(3FAc a>g "Bb"f<dd>f | "F"c>A "C"c/B/A/G/ "F"F2 |]
